!!!!SEGMENT: pl-kk--kk-i-7--028_anonim--alleluia-virga-jesse-floruit.krn
!!!cenid: 16xx:818
!!!COM: Anonim
!!!COM-rismID: pe30004985
!!!CDT:
!!!CNT:
!!!OTL: Alleluia virga Jesse floruit
!!!PDT:
!!!AGN: Sacred
!!!SMS-siglum: PL-Kk
!!!SMS-shelfmark: Kk.I.7
!!!SMS-shelfwork: 028 W
!!!SMS-variant:
!!!SMS-altvar:
!!!NIFC-rismSourceID: 300258105
!!!NIFC-islandoraID: pl-kk:1956
!!!URL-pdf-islandora: https://repozytorium.nifc.pl/islandora/object/pl-kk%3A1956/datastream/PDF/view
!!!URL-scan: https://polish.musicsources.pl/pl/lokalizacje/galeria/rekopisy/6140 @EN{Scan on Polish Music Sources Website} @PL{Skany w portalu Dziedzictwo Muzyki Polskiej w otwartym dostępie}
!!!ONB-nifc: UWAGA: C (skan 0017-0018, s.29-30), A (0104, s.28-29), T(0179-0180, s.23-24), B(0269-0270, s.30). Następny utwór: Alleluia ave virgo Maria
!!!AIN: 1 alto 1 bass 1 soprn 1 tenor
!!!key:
**kern	**text	**kern	**text	**text	**kern	**text	**kern	**text
*part4	*part4	*part3	*part3	*part3	*part2	*part2	*part1	*part1
*staff4	*staff4	*staff3	*staff3	*staff3	*staff2	*staff2	*staff1	*staff1
*Ibass	*	*Itenor	*	*	*Ialto	*	*Isoprn	*
*I"BASSVS.	*	*I"TENOR.	*	*	*I"ALTVS.	*	*I"CANTVS.	*
*I'B	*	*I'T	*	*	*I'A	*	*I'S	*
*clefF4	*	*clefC4	*	*	*clefC3	*	*clefC2	*
*k[]	*	*k[]	*	*	*k[]	*	*k[]	*
*C:	*	*C:	*	*	*C:	*	*C:	*
*M2/1	*	*M2/1	*	*	*M2/1	*	*M2/1	*
*met(c|)	*	*met(c|)	*	*	*met(c|)	*	*met(c|)	*
=1-	=1-	=1-	=1-	=1-	=1-	=1-	=1-	=1-
*all\right	*	*all\right	*	*	*all\right	*	*all\right	*
*xywh-pl-kk--i-7--0269:10415,3653,2634,1015	*	*xywh-pl-kk--i-7--0179:9880,1923,3194,751	*	*	*xywh-pl-kk--i-7--0104:5067,3448,2149,697	*	*xywh-pl-kk--i-7--0017:7161,3188,5880,656	*
1r	.	1D	Al-	.	2A/	Al-	2r	.
*	*	*	*	*	*2\right	*	*	*
.	.	.	.	.	2.d\	-le-	1d	Al-
1GG	Al-	1G	-le-	.	.	.	.	.
.	.	.	.	.	4c/	.	.	.
!	!	!	!	!	!LO:TX:t=P:problem=kreska pseudotaktowa	!	!	!
.	.	.	.	.	2B/	.	1g\	.
=2-	=2-	=2-	=2-	=2-	=2-	=2-	=2-	=2-
*	*	*	*	*	*lig	*	*	*
2C/	-le-	1G	-lu-	.	1c	.	.	.
*2\right	*	*	*	*	*	*	*	*
!LO:TX:t=P:problem=kreska pseudotaktowa	!	!	!	!	!	!	!LO:TX:t=P:problem=kreska pseudotaktowa	!
2E\	.	.	.	.	.	.	2e/	-le-
*	*	*lig	*	*	*	*	*	*
!	!	!	!	!	!	!	!LO:TX:a:t=P:problem=# above	!
1D	-lu-	1A	.	.	1d	.	1f#X	.
*	*	*	*	*	*Xlig	*	*	*
=3-	=3-	=3-	=3-	=3-	=3-	=3-	=3-	=3-
!	!	!	!	!	!	!	!LO:TX:t=P:problem=kreska pseudotaktowa	!
1GG	-ia	1G	.	.	2d\	.	1g	.
!	!	!	!	!	!LO:TX:t=P:problem=kreska pseudotaktowa	!	!	!
.	.	.	.	.	2B/	-lu-	.	.
*	*	*Xlig	*	*	*	*	*	*
*	*	*lig	*	*	*	*	*	*
4AA/	.	1c	.	.	1e	-ia	4c/	.
4BB/	.	.	.	.	.	.	4d/	.
4C/	.	.	.	.	.	.	4e/	.
!LO:TX:t=P:problem=kreska pseudotaktowa	!	!	!	!	!	!	!	!
4D/	.	.	.	.	.	.	4fny\	.
=4-	=4-	=4-	=4-	=4-	=4-	=4-	=4-	=4-
*	*	*	*	*	*	*ij	*2\right	*
2E\	.	1B	.	.	2r	.	2g\	.
*	*	*	*	*	*custos:c	*	*	*
!	!	!	!	!	!LO:TX:t=P:problem=kreska pseudotaktowa	!	!LO:TX:t=P:problem=kreska pseudotaktowa	!
*	*	*	*	*	*xywh-pl-kk--i-7--0104:1359,3967,5807,963	*	*	*
2G\	Al-	.	.	.	2B/	Al-	2e/	.
*	*	*Xlig	*	*	*	*	*	*
*custos:E	*	*	*	*	*	*	*	*
!LO:TX:t=P:problem=kreska pseudotaktowa	!	!	!	!	!LO:LB:g=original	!	!	!
!LO:TX:b:t=luia	!	!	!	!	!	!	!	!
1F	-le-	1A	.	.	2.c/	-le-	1f	-lu-
!	!	!	!	!	!LO:TX:t=P:problem=kreska pseudotaktowa	!	!	!
.	.	.	.	.	4d\	.	.	.
!LO:PB:g=original	!	!	!	!	!	!	!	!
=5-	=5-	=5-	=5-	=5-	=5-	=5-	=5-	=5-
*	*	*lig	*	*	*	*	*	*
*xywh-pl-kk--i-7--0270:1155,398,5914,946	*	*	*	*	*	*	*	*
1.E	.	1B	.	.	4e\	.	2g\	.
.	.	.	.	.	4f\	.	.	.
!	!	!	!	!	!LO:TX:t=P:problem=kreska pseudotaktowa	!	!	!
.	.	.	.	.	2g\	.	1e	-ia
*	*	*	*	*	*lig	*	*	*
.	.	1G	.	.	1e	.	.	.
!LO:TX:t=P:problem=kreska pseudotaktowa	!	!	!	!	!	!	!LO:TX:t=P:problem=kreska pseudotaktowa	!
2C/	.	.	.	.	.	.	2g\	Al-
*	*	*Xlig	*	*	*	*	*	*
=6-	=6-	=6-	=6-	=6-	=6-	=6-	=6-	=6-
*	*	*lig	*	*	*	*	*	*
1F	.	1A	.	.	1c	.	1f	-le-
*	*	*	*	*	*Xlig	*	*	*
!LO:TX:t=P:problem=kreska pseudotaktowa	!	!	!	!	!	!	!	!
1C	.	1G	.	.	2e\	.	2g\	.
.	.	.	.	.	2.c/	.	2.e/	.
*	*	*Xlig	*	*	*	*	*	*
=7-	=7-	=7-	=7-	=7-	=7-	=7-	=7-	=7-
*	*	*lig	*	*	*	*	*	*
2.FF/	.	1F	.	.	.	.	.	.
.	.	.	.	.	4B/	.	4d/	.
.	.	.	.	.	1A	.	1d	.
4GG/	.	.	.	.	.	.	.	.
*	*	*custos:F	*	*	*	*	*	*
1AA	.	1E	.	.	.	.	.	.
!	!	!	!	!	!	!	!LO:TX:t=P:problem=kreska pseudotaktowa	!
!	!	!	!	!	!	!	!LO:TX:a:t=P:problem=# above	!
.	.	.	.	.	1A/	-lu-	2c#X/	.
*	*	*Xlig	*	*	*	*	*	*
!	!	!LO:LB:g=original	!	!	!	!	!	!
=8-	=8-	=8-	=8-	=8-	=8-	=8-	=8-	=8-
*	*	*xywh-pl-kk--i-7--0179:7210,2531,5960,762	*	*	*	*	*	*
1D	-lu-	1F	.	.	.	.	2d/	.
!	!	!	!	!	!LO:N:vis=1	!	!	!
.	.	.	.	.	1.B;	-ia	4e/	-lu-
*	*	*	*	*	*	*Xij	*	*
.	.	.	.	.	.	.	4f\	.
1GG;	-ia.	1G;	-ia.	.	.	.	[2g\	-ia
.	.	.	.	.	.	.	2g\;<]	.
=9||	=9||	=9||	=9||	=9||	=9||	=9||	=9||	=9||
*M2/1	*	*M2/1	*	*	*M2/1	*	*M2/1	*
*met(c|)	*	*met(c|)	*	*	*met(c|)	*	*met(c|)	*
!LO:TX:t=P:problem=kreska pseudotaktowa	!	!	!	!	!	!	!LO:TX:t=P:problem=kreska pseudotaktowa	!
0r	.	1G	Vir-	.	2r	.	1rf	.
.	.	.	.	.	1g	Vir-	.	.
*	*	*lig	*	*	*	*	*	*
.	.	1A	.	.	.	.	1c	Vir-
!	!	!	!	!	!LO:TX:t=P:problem=kreska pseudotaktowa	!	!	!
.	.	.	.	.	2f#X\	.	.	.
=10-	=10-	=10-	=10-	=10-	=10-	=10-	=10-	=10-
*	*	*	*	*	*	*	*lig	*
1GG	Vir-	1G	.	.	2.g\	-ga	1d	.
.	.	.	.	.	4fny\	.	.	.
*lig	*	*Xlig	*	*	*	*	*	*
*	*	*lig	*	*	*	*	*	*
!	!	!	!	!	!	!	!LO:TX:t=P:problem=kreska pseudotaktowa	!
1AA	.	1c	.	.	4e\	Jeſ-	1c	.
.	.	.	.	.	4d\	.	.	.
!	!	!	!	!	!LO:TX:t=P:problem=kreska pseudotaktowa	!	!	!
.	.	.	.	.	2c/	.	.	.
*	*	*	*	*	*	*	*Xlig	*
=11-	=11-	=11-	=11-	=11-	=11-	=11-	=11-	=11-
1GG	.	1B	.	.	1d	.	1.g	.
*Xlig	*	*Xlig	*	*	*	*	*	*
2C/	.	1A	.	.	2e\	.	.	.
*	*	*	*	*	*	*	*custos:g	*
!LO:TX:t=P:problem=kreska pseudotaktowa	!	!	!	!	!LO:TX:t=P:problem=kreska pseudotaktowa	!	!LO:TX:t=P:problem=kreska pseudotaktowa	!
!	!	!	!	!	!	!	!LO:TX:a:t=P:problem=# above	!
2D/	.	.	.	.	2d\	.	2f#X\	.
!	!	!	!	!	!	!	!LO:LB:g=original	!
=12-	=12-	=12-	=12-	=12-	=12-	=12-	=12-	=12-
*lig	*	*	*	*	*	*	*	*
*	*	*	*	*	*	*	*xywh-pl-kk--i-7--0017:7153,3764,5929,882	*
1E	.	1G	-ga	.	1B	-se	1g	.
*	*	*lig	*	*	*	*ij	*lig	*
!	!	!	!	!	!LO:TX:t=P:problem=kreska pseudotaktowa	!	!	!
1C	.	1G	Jeſ-	.	1c	Vir-	1e	-ga
*Xlig	*	*	*	*	*	*	*	*
=13-	=13-	=13-	=13-	=13-	=13-	=13-	=13-	=13-
*lig	*	*	*	*	*lig	*	*	*
1BB	.	1d	.	.	1d	-ga	1g	.
*	*	*Xlig	*	*	*	*	*Xlig	*
*	*	*lig	*	*	*	*	*	*
1C	.	1e	-se	.	1c	.	1.g	Jeſ-
*Xlig	*	*	*	*	*Xlig	*	*	*
=14-	=14-	=14-	=14-	=14-	=14-	=14-	=14-	=14-
2C/	.	1c	.	.	1.g	Jeſ-	.	.
!LO:TX:t=P:problem=kreska pseudotaktowa	!	!	!	!	!	!	!LO:TX:t=P:problem=kreska pseudotaktowa	!
2E\	-ga	.	.	.	.	.	2e/	.
*	*	*Xlig	*	*	*	*	*	*
*	*	*lig	*	*	*	*	*	*
1D	Jeſ-	1d	.	.	.	.	1a	.
.	.	.	.	.	2f\	.	.	.
=15-	=15-	=15-	=15-	=15-	=15-	=15-	=15-	=15-
!	!	!	!	!	!LO:TX:t=P:problem=kreska pseudotaktowa	!	!	!
2GG/	-se	1B	.	.	1g	-se	2g\	.
*	*ij	*	*	*	*	*Xij	*	*
!	!	!	!	!	!	!	!LO:TX:t=P:problem=kreska pseudotaktowa	!
1G	Vir-	.	.	.	.	.	2d/	.
*	*	*Xlig	*	*	*	*	*	*
.	.	1A	.	.	1r	.	1.d	-se
!LO:TX:t=P:problem=kreska pseudotaktowa	!	!	!	!	!	!	!	!
!LO:TX:a:t=P:problem=# above	!	!	!	!	!	!	!	!
2F#X\	-ga	.	.	.	.	.	.	.
=16-	=16-	=16-	=16-	=16-	=16-	=16-	=16-	=16-
2G\	Jeſ-	1B	.	.	2r	.	.	.
*custos:A	*	*	*	*	*	*	*	*
!LO:TX:t=P:problem=kreska pseudotaktowa	!	!	!	!	!	!	!	!
2E\	-se	.	.	.	1e	Vir-	1g	Vir-
*	*Xij	*	*	*	*	*	*	*
!LO:LB:g=original	!	!	!	!	!	!	!	!
*lig	*	*lig	*	*	*	*	*	*
*xywh-pl-kk--i-7--0270:1224,1084,5777,850	*	*	*	*	*	*	*	*
1A	flo-	1c	.	.	.	.	.	.
*	*	*	*	*	*custos:d	*	*	*
!	!	!	!	!	!LO:TX:t=P:problem=kreska pseudotaktowa	!	!LO:TX:t=P:problem=kreska pseudotaktowa	!
!	!	!	!	!	!	!	!LO:TX:a:t=P:problem=# above	!
.	.	.	.	.	2c/	-ga	2f#X\	.
!	!	!	!	!	!LO:PB:g=original	!	!	!
=17-	=17-	=17-	=17-	=17-	=17-	=17-	=17-	=17-
*	*	*	*	*	*xywh-pl-kk--i-7--0104:7308,717,6026,697	*	*	*
!LO:TX:t=P:problem=kreska pseudotaktowa	!	!	!	!	!	!	!	!
1G	.	1B	.	.	1d	Jeſ-	2g\	-ga
!	!	!	!	!	!	!	!LO:TX:t=P:problem=kreska pseudotaktowa	!
.	.	.	.	.	.	.	2d/	Jeſ-
*Xlig	*	*Xlig	*	*	*	*	*	*
*lig	*	*lig	*	*	*	*	*lig	*
1D	.	1A	.	.	2d\	-se	1fny	-se
.	.	.	.	.	1d\	flo-	.	.
=18-	=18-	=18-	=18-	=18-	=18-	=18-	=18-	=18-
1E	.	1G,	.	.	.	.	1g	.
!	!	!	!	!	!LO:TX:a:t=P:problem=# above	!	!	!
.	.	.	.	.	2c#X/	-ru-	.	.
*Xlig	*	*Xlig	*	*	*	*	*Xlig	*
*	*	*lig	*	*	*	*	*	*
!	!	!	!	!	!LO:TX:t=P:problem=kreska pseudotaktowa	!	!	!
1D	-ru-	1A	flo-	.	0d	-it	2ra	.
!	!	!	!	!	!	!	!LO:TX:t=P:problem=kreska pseudotaktowa	!
!	!	!	!	!	!	!	!LO:TX:b:t=P:problem=# below	!
.	.	.	.	.	.	.	2f#X^^\	flo-
=19-	=19-	=19-	=19-	=19-	=19-	=19-	=19-	=19-
!LO:TX:t=P:problem=kreska pseudotaktowa	!	!	!	!	!	!	!	!
1GG	-it	1G	.	.	.	.	2g\	-ru-
.	.	.	.	.	.	.	4d/	-it
.	.	.	.	.	.	.	4e/	.
*lig	*	*Xlig	*	*	*	*	*	*
*	*	*lig	*	*	*	*	*	*
1D	flo-	1F	.	.	2r	.	4fny\	flo-
.	.	.	.	.	.	.	4g\	.
.	.	.	.	.	4A/	flo-	1a\	.
!	!	!	!	!	!LO:TX:t=P:problem=kreska pseudotaktowa	!	!	!
.	.	.	.	.	4B/	.	.	.
=20-	=20-	=20-	=20-	=20-	=20-	=20-	=20-	=20-
1AA	.	1E	.	.	4cny/	.	.	.
.	.	.	.	.	4d\	.	.	.
!	!	!	!	!	!LO:TX:t=P:problem=kreska pseudotaktowa	!	!LO:TX:t=P:problem=kreska pseudotaktowa	!
.	.	.	.	.	2e\	.	2A/	-ru-
*Xlig	*	*Xlig	*	*	*	*	*	*
*lig	*	*	*	*	*	*	*	*
1FF	.	1F	-ru-	.	4A/	.	1c	-it
.	.	.	.	.	4B/	.	.	.
.	.	.	.	.	4c/	.	.	.
.	.	.	.	.	4d\	.	.	.
=21-	=21-	=21-	=21-	=21-	=21-	=21-	=21-	=21-
*	*	*	*	*	*lig	*	*	*
1C	.	1G	-it	.	1e	.	4c/	flo-
.	.	.	.	.	.	.	4d/	.
.	.	.	.	.	.	.	4e/	.
!	!	!	!	!	!	!	!LO:TX:t=P:problem=kreska pseudotaktowa	!
.	.	.	.	.	.	.	4f\	.
*Xlig	*	*lig	*	*	*	*	*	*
!	!	!	!	!	!LO:TX:t=P:problem=kreska pseudotaktowa	!	!	!
1GG	.	1G	Vir-	.	1d	.	4g\	.
.	.	.	.	.	.	.	4d/	.
.	.	.	.	.	.	.	1g\	.
*	*	*	*	*	*Xlig	*	*	*
=22-	=22-	=22-	=22-	=22-	=22-	=22-	=22-	=22-
*	*	*custos:B	*	*	*	*	*	*
1D	-ru-	1A	.	.	1d	-ru-	.	.
!	!	!	!	!	!	!	!LO:TX:a:t=P:problem=# above	!
.	.	.	.	.	.	.	2f#X\	-ru-
*	*	*Xlig	*	*	*	*	*	*
!	!	!LO:LB:g=original	!	!	!	!	!	!
*	*	*lig	*	*	*lig	*	*	*
!LO:TX:t=P:problem=kreska pseudotaktowa	!	!	!	!	!	!	!LO:TX:t=P:problem=kreska pseudotaktowa	!
*	*	*xywh-pl-kk--i-7--0179:7198,3163,6020,834	*	*	*	*	*	*
1GG	-it	1B	.	.	1d	-it	1g	-it
=23-	=23-	=23-	=23-	=23-	=23-	=23-	=23-	=23-
!	!	!	!	!	!LO:TX:t=P:problem=kreska pseudotaktowa	!	!	!
2r	.	1A	.	.	1c	.	2r	.
1Fny	Vir-	.	.	.	.	.	1a	Vir-
*	*	*Xlig	*	*	*Xlig	*	*	*
*	*	*lig	*	*	*	*	*	*
.	.	1c	.	.	2r	.	.	.
!LO:TX:t=P:problem=kreska pseudotaktowa	!	!	!	!	!	!	!LO:TX:t=P:problem=kreska pseudotaktowa	!
2C/	-go	.	.	.	2c/	Vir-	2e/	-go
=24-	=24-	=24-	=24-	=24-	=24-	=24-	=24-	=24-
*lig	*	*	*	*	*	*	*lig	*
!	!	!	!	!	!LO:TX:t=P:problem=kreska pseudotaktowa	!	!	!
1E	De-	1B	.	.	1G	-go	1g	De-
*	*	*Xlig	*	*	*	*	*	*
*	*	*lig	*	*	*	*	*	*
*	*	*	*	*	*	*	*custos:e	*
!	!	!	!	!	!	!	!LO:TX:t=P:problem=kreska pseudotaktowa	!
!	!	!	!	!	!	!	!LO:TX:b:t=um	!
1D	.	1d	.	.	2.A/	De-	1fny	.
.	.	.	.	.	4B/	.	.	.
*Xlig	*	*	*	*	*	*	*Xlig	*
!	!	!	!	!	!	!	!LO:PB:g=original	!
=25-	=25-	=25-	=25-	=25-	=25-	=25-	=25-	=25-
*lig	*	*	*	*	*	*	*	*
*	*	*	*	*	*	*	*xywh-pl-kk--i-7--0018:1305,763,5686,729	*
1A	.	1c	.	.	4c/	.	2e/	.
.	.	.	.	.	4d/	.	.	.
!	!	!	!	!	!LO:TX:t=P:problem=kreska pseudotaktowa	!	!	!
.	.	.	.	.	2e\	.	1a	.
*	*	*Xlig	*	*	*	*	*	*
*	*	*lig	*	*	*	*	*	*
1E	.	1B	.	.	2e\	-um	.	.
!	!	!	!	!	!	!	!LO:TX:t=P:problem=kreska pseudotaktowa	!
!	!	!	!	!	!	!	!LO:TX:a:t=P:problem=# above	!
.	.	.	.	.	1e\	et	2g#X\	.
*Xlig	*	*	*	*	*	*	*	*
=26-	=26-	=26-	=26-	=26-	=26-	=26-	=26-	=26-
!LO:TX:t=P:problem=kreska pseudotaktowa	!	!	!	!	!	!	!	!
1AA	-um	1A	.	.	.	.	1a	-um
.	.	.	.	.	4e\	Ho-	.	.
!	!	!	!	!	!LO:TX:t=P:problem=kreska pseudotaktowa	!	!	!
.	.	.	.	.	4f\	.	.	.
*	*	*Xlig	*	*	*	*	*	*
*	*	*lig	*	*	*	*	*	*
2r	.	1B	-go	.	2.g\	.	2d/	et
2GG/	et	.	.	.	.	.	2.gny\	Ho-
.	.	.	.	.	4f\	.	.	.
=27-	=27-	=27-	=27-	=27-	=27-	=27-	=27-	=27-
*lig	*	*	*	*	*	*	*	*
1C	Ho-	1G,	.	.	4e\	.	.	.
.	.	.	.	.	4d\	.	4f\	.
!	!	!	!	!	!LO:TX:t=P:problem=kreska pseudotaktowa	!	!LO:TX:t=P:problem=kreska pseudotaktowa	!
.	.	.	.	.	2c/	.	2e/	.
*	*	*Xlig	*	*	*	*	*	*
*	*	*lig	*	*	*	*	*	*
1GG	.	1G	De-	.	1B	.	2d/	.
.	.	.	.	.	.	.	2g\	.
*Xlig	*	*	*	*	*	*	*	*
=28-	=28-	=28-	=28-	=28-	=28-	=28-	=28-	=28-
!LO:TX:t=P:problem=kreska pseudotaktowa	!	!	!	!	!	!	!	!
1D	.	1A	.	.	2d\	.	1f	.
*	*	*	*	*	*custos:A	*	*	*
!	!	!	!	!	!LO:TX:t=P:problem=kreska pseudotaktowa	!	!	!
.	.	.	.	.	2A/	-mi-	.	.
*	*	*Xlig	*	*	*	*	*	*
!	!	!	!	!	!LO:LB:g=original	!	!	!
*	*	*lig	*	*	*	*	*	*
*	*	*	*	*	*xywh-pl-kk--i-7--0104:7296,1345,5967,674	*	*	*
2.AA/	.	1c	.	.	1.A	-nem	2.e/	.
!	!	!	!	!	!	!	!LO:TX:t=P:problem=kreska pseudotaktowa	!
4BB/	.	.	.	.	.	.	4d/	.
=29-	=29-	=29-	=29-	=29-	=29-	=29-	=29-	=29-
4C/	.	1G	.	.	.	.	4e/	.
4D/	.	.	.	.	.	.	4f\	.
*custos:D	*	*	*	*	*	*	*	*
!LO:TX:t=P:problem=kreska pseudotaktowa	!	!	!	!	!LO:TX:t=P:problem=kreska pseudotaktowa	!	!	!
2E\	.	.	.	.	2B/	et	1g	.
*	*	*Xlig	*	*	*	*	*	*
!LO:LB:g=original	!	!	!	!	!	!	!	!
*	*	*lig	*	*	*	*	*	*
*xywh-pl-kk--i-7--0270:1224,1757,5804,768	*	*	*	*	*	*	*	*
2.D/	.	1A	.	.	1.d	ho-	.	.
!	!	!	!	!	!	!	!LO:TX:t=P:problem=kreska pseudotaktowa	!
!	!	!	!	!	!	!	!LO:TX:a:t=P:problem=# above	!
.	.	.	.	.	.	.	2f#X\	-mi-
4D/	-mi-	.	.	.	.	.	.	.
=30-	=30-	=30-	=30-	=30-	=30-	=30-	=30-	=30-
!LO:TX:t=P:problem=kreska pseudotaktowa	!	!	!	!	!	!	!	!
1GG,	-nem	1G	.	.	.	.	2g\	-nem
!	!	!	!	!	!LO:TX:t=P:problem=kreska pseudotaktowa	!	!	!
.	.	.	.	.	2B/	-mi-	4d/	ge-
!	!	!	!	!	!	!	!LO:TX:t=P:problem=kreska pseudotaktowa	!
.	.	.	.	.	.	.	4e/	.
*	*	*Xlig	*	*	*	*	*	*
*	*	*lig	*	*	*	*	*	*
1D	ge-	1F	.	.	2A/	-nem	2fny\	.
.	.	.	.	.	1A/	ge-	1d/	.
=31-	=31-	=31-	=31-	=31-	=31-	=31-	=31-	=31-
1AA	-nu-	1E	.	.	.	.	.	.
!	!	!	!	!	!	!	!LO:TX:a:t=P:problem=# above	!
.	.	.	.	.	2A/	-nu-	2c#X/	-nu-
*	*	*Xlig	*	*	*lig	*	*	*
!LO:TX:t=P:problem=kreska pseudotaktowa	!	!	!	!	!	!	!LO:TX:t=P:problem=kreska pseudotaktowa	!
1D	-it	1F	.	.	1A	-it	1d	-it
=32-	=32-	=32-	=32-	=32-	=32-	=32-	=32-	=32-
!	!	!	!	!	!LO:TX:t=P:problem=kreska pseudotaktowa	!	!	!
2rC	.	1G	-um	.	1B	.	2r	.
1E	Vir-	.	.	.	.	.	1g	Vir-
*	*	*	*	*	*Xlig	*	*	*
.	.	1G	et	.	0r	.	.	.
!LO:TX:t=P:problem=kreska pseudotaktowa	!	!	!	!	!	!	!LO:TX:t=P:problem=kreska pseudotaktowa	!
2BB/	-go	.	.	.	.	.	2d/	-go
=33-	=33-	=33-	=33-	=33-	=33-	=33-	=33-	=33-
*	*	*lig	*	*	*	*	*	*
1C	De-	1G	Ho-	.	.	.	1e	De-
!	!	!	!	!	!LO:TX:t=P:problem=kreska pseudotaktowa	!	!	!
2AA/	.	1A	.	.	1r	.	2cny/	-um
!LO:TX:t=P:problem=kreska pseudotaktowa	!	!	!	!	!	!	!LO:TX:t=P:problem=kreska pseudotaktowa	!
2D/	-um	.	.	.	.	.	2f\	et
*	*	*Xlig	*	*	*	*	*	*
=34-	=34-	=34-	=34-	=34-	=34-	=34-	=34-	=34-
*	*	*lig	*	*	*	*	*	*
4C/	et	1c	.	.	2r	.	1e	.
4D/	.	.	.	.	.	.	.	.
4E\	Ho-	.	.	.	1g	Vir-	.	.
4F\	.	.	.	.	.	.	.	.
*lig	*	*	*	*	*	*	*lig	*
1G	.	1B	.	.	.	.	1d	ho-
!	!	!	!	!	!LO:TX:t=P:problem=kreska pseudotaktowa	!	!	!
.	.	.	.	.	2d\	go	.	.
*	*	*Xlig	*	*	*	*	*	*
=35-	=35-	=35-	=35-	=35-	=35-	=35-	=35-	=35-
1C	.	1c	.	.	1e	De-	1g	.
*Xlig	*	*	*	*	*	*	*Xlig	*
*	*	*	*	*	*	*	*lig	*
!LO:TX:t=P:problem=kreska pseudotaktowa	!	!	!	!	!	!	!	!
1F	-mi-	1A	-mi-	.	2c/	.	1f	.
!	!	!	!	!	!LO:TX:t=P:problem=kreska pseudotaktowa	!	!	!
.	.	.	.	.	2d\	-um	.	.
=36-	=36-	=36-	=36-	=36-	=36-	=36-	=36-	=36-
*	*	*	*	*	*	*	*custos:a	*
!LO:TX:t=P:problem=kreska pseudotaktowa	!	!	!	!	!	!	!LO:TX:t=P:problem=kreska pseudotaktowa	!
1E	-nem	1B	-nem	.	1.e	et	1g	.
*lig	*	*lig	*	*	*	*	*Xlig	*
!	!	!	!	!	!	!	!LO:LB:g=original	!
*	*	*	*	*	*	*	*xywh-pl-kk--i-7--0018:1315,1434,5676,680	*
1A	ge-	1c	ge-	.	.	.	2a\	.
.	.	.	.	.	2c/	Ho-	2e/	-mi-
=37-	=37-	=37-	=37-	=37-	=37-	=37-	=37-	=37-
*	*	*	*	*	*lig	*	*	*
!	!	!	!	!	!	!	!LO:TX:t=P:problem=kreska pseudotaktowa	!
1G	.	1B	.	.	1d	-mi-	1g	-nem
*Xlig	*	*Xlig	*	*	*	*	*	*
*	*	*lig	*	*	*	*	*	*
!	!	!	!	!	!LO:TX:t=P:problem=kreska pseudotaktowa	!	!	!
1C	.	1c	.	.	1e	.	1.g	ge-
*	*	*	*	*	*Xlig	*	*	*
=38-	=38-	=38-	=38-	=38-	=38-	=38-	=38-	=38-
*	*	*custos:g	*	*	*	*	*	*
1D	-nu-	1A	.	.	2.d\	-nem	.	.
!	!	!	!	!	!	!	!LO:TX:a:t=P:problem=# above	!
.	.	.	.	.	.	.	2f#X\	-nu-
.	.	.	.	.	4c/	.	.	.
*	*	*Xlig	*	*	*	*	*	*
!LO:TX:t=P:problem=kreska pseudotaktowa	!	!LO:LB:g=original	!	!	!LO:TX:t=P:problem=kreska pseudotaktowa	!	!LO:TX:t=P:problem=kreska pseudotaktowa	!
*	*	*xywh-pl-kk--i-7--0179:7162,3818,6055,858	*	*	*	*	*	*
1GG	-it	1G	.	.	1B	ge-	1g	-it
=39-	=39-	=39-	=39-	=39-	=39-	=39-	=39-	=39-
*	*	*lig	*	*	*	*	*	*
2rC	.	1A	.	.	4c/	.	2r	.
.	.	.	.	.	4B/	.	.	.
4AA/	ge-	.	.	.	4c/	.	2.e/	ge-
!LO:TX:t=P:problem=kreska pseudotaktowa	!	!	!	!	!	!	!	!
4BB/	.	.	.	.	4d\	.	.	.
4C/	.	1G	.	.	1e	.	.	.
4D/	.	.	.	.	.	.	4d/	.
2E\	.	.	.	.	.	.	1c/	.
*	*	*Xlig	*	*	*	*	*	*
=40-	=40-	=40-	=40-	=40-	=40-	=40-	=40-	=40-
*	*	*lig	*	*	*	*	*	*
1D	-nu-	1F	.	.	2A/	-nu-	.	.
!	!	!	!	!	!LO:TX:t=P:problem=kreska pseudotaktowa	!	!LO:TX:t=P:problem=kreska pseudotaktowa	!
.	.	.	.	.	2d\	-it	2B/	.
*	*	*	*	*	*lig	*	*	*
*custos:g	*	*	*	*	*	*	*	*
!LO:TX:t=P:problem=kreska pseudotaktowa	!	!	!	!	!	!	!	!
1C	-it	1E	.	.	1G	pa-	2c/	.
.	.	.	.	.	.	.	2e/	.
*	*	*Xlig	*	*	*	*	*	*
!LO:LB:g=original	!	!	!	!	!	!	!	!
=41-	=41-	=41-	=41-	=41-	=41-	=41-	=41-	=41-
!LO:TX:t=P:problem=kreska pseudotaktowa	!	!	!	!	!	!	!	!
*xywh-pl-kk--i-7--0270:1155,2347,5859,837	*	*	*	*	*	*	*	*
1r	.	1F	-nu-	.	1A	.	2d/	.
.	.	.	.	.	.	.	2c/	-nu-
*	*	*	*	*	*Xlig	*	*	*
!	!	!	!	!	!	!	!LO:TX:t=P:problem=kreska pseudotaktowa	!
2r	.	1G	-it,	.	1d	.	1B	-it
1G\	Pa-	.	.	.	.	.	.	.
=42-	=42-	=42-	=42-	=42-	=42-	=42-	=42-	=42-
*	*	*	*	*	*custos:g	*	*	*
!	!	!	!	!	!LO:TX:t=P:problem=kreska pseudotaktowa	!	!	!
.	.	1d	Pa-	.	1G	-cem	2r	.
2GG/	.	.	.	.	.	.	1g	Pa-
!	!	!	!	!	!LO:LB:g=original	!	!	!
*	*	*	*	*	*xywh-pl-kk--i-7--0104:7261,1915,5967,732	*	*	*
1GG	-cem	1G	-cem	.	1.g	pa-	.	.
!	!	!	!	!	!	!	!LO:TX:t=P:problem=kreska pseudotaktowa	!
.	.	.	.	.	.	.	2d/	-cem
=43-	=43-	=43-	=43-	=43-	=43-	=43-	=43-	=43-
1.G	Pa-	1d	De-	.	.	.	2r	.
!	!	!	!	!	!LO:TX:t=P:problem=kreska pseudotaktowa	!	!	!
.	.	.	.	.	2d\	.	1g	pa-
*	*	*lig	*	*	*	*	*	*
.	.	1e	.	.	2B/	-cem	.	.
!LO:TX:t=P:problem=kreska pseudotaktowa	!	!	!	!	!	!	!LO:TX:t=P:problem=kreska pseudotaktowa	!
2A\	.	.	.	.	1c\	De-	2e/	-cem
=44-	=44-	=44-	=44-	=44-	=44-	=44-	=44-	=44-
2F\	-cem	1d	.	.	.	.	2a\	De-
2G\	De-	.	.	.	1B	.	1g	.
*	*	*Xlig	*	*	*	*	*	*
*	*	*lig	*	*	*	*	*	*
2E\	-us	1c	.	.	.	.	.	.
!LO:TX:t=P:problem=kreska pseudotaktowa	!	!	!	!	!LO:TX:t=P:problem=kreska pseudotaktowa	!	!	!
2F\	red-	.	.	.	2A/	-us	2.fny\	-us
=45-	=45-	=45-	=45-	=45-	=45-	=45-	=45-	=45-
!	!	!	!	!	!LO:TX:t=P:problem=kreska pseudotaktowa	!	!	!
1D	-di-	1d	.	.	1A	red-	.	.
.	.	.	.	.	.	.	4g\	.
!	!	!	!	!	!	!	!LO:TX:t=P:problem=kreska pseudotaktowa	!
.	.	.	.	.	.	.	2a\	red-
*	*	*Xlig	*	*	*	*	*	*
*	*	*lig	*	*	*	*	*	*
!LO:TX:t=P:problem=kreska pseudotaktowa	!	!	!	!	!	!	!	!
1G	-dit	1d	-us	.	2.B/	-di-	1g	-de-
.	.	.	.	.	4A/	.	.	.
=46-	=46-	=46-	=46-	=46-	=46-	=46-	=46-	=46-
!LO:TX:t=P:problem=kreska pseudotaktowa	!	!	!	!	!	!	!	!
1GG	Pa-	1B	.	.	4B/	-dit	2d/	.
.	.	.	.	.	4c/	.	.	.
.	.	.	.	.	1d	De-	1g	-dit,
*	*	*Xlig	*	*	*	*	*	*
1G	-cem	1d	red-	.	.	.	.	.
!	!	!	!	!	!LO:TX:t=P::problem=kreska pseudotaktowa&colon;między nutą a kropką	!	!LO:TX:t=P:problem=kreska pseudotaktowa	!
.	.	.	.	.	2.g\	.	2d/	pa-
=47-	=47-	=47-	=47-	=47-	=47-	=47-	=47-	=47-
2C/	pa-	1c	-di-	.	.	.	4e/	-cem
.	.	.	.	.	4f\	.	4d/	.
1C	-cem	.	.	.	4e\	.	4e/	.
.	.	.	.	.	4d\	.	4f/	.
*	*	*lig	*	*	*	*	*	*
!	!	!	!	!	!LO:TX:t=P:problem=kreska pseudotaktowa	!	!	!
.	.	1c	-dit	.	1e	.	2g\	De-
*	*	*	*	*	*	*	*custos:a	*
!LO:TX:t=P:problem=kreska pseudotaktowa	!	!	!	!	!	!	!LO:TX:t=P:problem=kreska pseudotaktowa	!
2AA/	De-	.	.	.	.	.	2a\	-us
!	!	!	!	!	!	!	!LO:LB:g=original	!
=48-	=48-	=48-	=48-	=48-	=48-	=48-	=48-	=48-
!	!	!	!	!	!LO:TX:t=P:problem=kreska pseudotaktowa	!	!	!
*	*	*	*	*	*	*	*xywh-pl-kk--i-7--0018:1315,2085,5705,641	*
2.E\	-us	1B	.	.	0e	-us	2a\	red-
!	!	!	!	!	!	!	!LO:TX:a:t=P:problem=# above	!
.	.	.	.	.	.	.	2g#X\	-di-
4E\	red-	.	.	.	.	.	.	.
*	*	*Xlig	*	*	*	*	*	*
!LO:TX:t=P:problem=kreska pseudotaktowa	!	!	!	!	!	!	!LO:TX:t=P:problem=kreska pseudotaktowa	!
1AA	-didit	1A	.	.	.	.	1a	-dit
=49-	=49-	=49-	=49-	=49-	=49-	=49-	=49-	=49-
*	*	*lig	*	*	*lig	*	*	*
2r	.	1c	.	.	1e	red-	4gny\	red-
.	.	.	.	.	.	.	4e/	.
2AA/	red-	.	.	.	.	.	2.a\	.
2.BB/	.	1B	.	.	1d	.	.	.
.	.	.	.	.	.	.	4g\	.
.	.	.	.	.	.	.	1g\	-di-
!LO:TX:t=P:problem=kreska pseudotaktowa	!	!	!	!	!	!	!	!
4C/	.	.	.	.	.	.	.	.
*	*	*Xlig	*	*	*Xlig	*	*	*
=50-	=50-	=50-	=50-	=50-	=50-	=50-	=50-	=50-
2D/	-dit-	1A	.	.	1d	-di-	.	.
!	!	!	!	!	!	!	!LO:TX:a:t=P:problem=# above	!
2D/	-dit	.	.	.	.	.	2f#X\	.
*	*	*lig	*	*	*	*	*	*
*custos:C	*	*	*	*	*	*	*	*
!LO:TX:t=P:problem=kreska pseudotaktowa	!	!	!	!	!LO:TX:t=P:problem=kreska pseudotaktowa	!	!LO:TX:t=P:problem=kreska pseudotaktowa	!
1GG	.	1B	.	.	0d	-dit	1g	-dit
!LO:LB:g=original	!	!	!	!	!	!	!	!
=51-	=51-	=51-	=51-	=51-	=51-	=51-	=51-	=51-
*xywh-pl-kk--i-7--0270:1238,3033,5750,713	*	*	*	*	*	*	*	*
2r	.	1G	.	.	.	.	2r	.
1C	in	.	.	.	.	.	1e\	in
*	*	*Xlig	*	*	*	*	*	*
.	.	1G	in	.	1r	.	.	.
!LO:TX:t=P:problem=kreska pseudotaktowa	!	!	!	!	!	!	!LO:TX:a:t=g	!
!	!	!	!	!	!	!	!LO:TX:t=P:problem=kreska pseudotaktowa	!
2E\	ſe	.	.	.	.	.	2g\	ſe
=52-	=52-	=52-	=52-	=52-	=52-	=52-	=52-	=52-
*	*	*lig	*	*	*	*	*	*
2D\	re-	1A	ſe	.	2r	.	2fny\	re-
!LO:TX:t=P:problem=kreska pseudotaktowa	!	!	!	!	!LO:TX:t=P:problem=kreska pseudotaktowa	!	!	!
2F\	-con-	.	.	.	2c/	in	2a\	-con-
*	*	*custos:B	*	*	*	*	*	*
!	!	!LO:TX:b:t=reconc	!	!	!	!	!	!
2.E\	-ci-	1B	.	.	1e	ſe	2.g#X\	-ci-
!	!	!	!	!	!	!	!LO:TX:t=P:problem=kreska pseudotaktowa	!
4E\	-li-	.	.	.	.	.	4g#\	-li-
*	*	*Xlig	*	*	*	*	*	*
!	!	!LO:PB:g=original	!	!	!	!	!	!
=53-	=53-	=53-	=53-	=53-	=53-	=53-	=53-	=53-
*	*	*	*	*	*lig	*	*	*
!LO:TX:t=P:problem=kreska pseudotaktowa	!	!	!	!	!	!	!	!
*	*	*xywh-pl-kk--i-7--0180:946,576,6001,855	*	*	*	*	*	*
1E	-ans	1B	re-	.	1e	re-	1g#	-ans
!	!	!	!	!	!LO:TX:t=P:problem=kreska pseudotaktowa	!	!	!
1D	i-	1d	-con-	.	1f	.	1.a	i-
*	*	*	*	*	*Xlig	*	*	*
=54-	=54-	=54-	=54-	=54-	=54-	=54-	=54-	=54-
*lig	*	*	*	*	*	*	*	*
1AA	-ma	1c	-ci-	.	1.e	-con-	.	.
!	!	!	!	!	!	!	!LO:TX:t=P:problem=kreska pseudotaktowa	!
.	.	.	.	.	.	.	2e/	-ma
*	*	*lig	*	*	*	*	*	*
1E	.	1B	.	.	.	.	1.e	Sum-
!	!	!	!	!	!LO:TX:t=P:problem=kreska pseudotaktowa	!	!	!
.	.	.	.	.	2B/	.	.	.
*Xlig	*	*	*	*	*	*	*	*
=55-	=55-	=55-	=55-	=55-	=55-	=55-	=55-	=55-
*lig	*	*	*	*	*lig	*	*	*
1AA	Sum-	1A	.	.	1c	-ci-	.	.
!	!	!	!	!	!	!	!LO:TX:a:t=P:problem=# above	!
.	.	.	.	.	.	.	2f#X\	.
*	*	*Xlig	*	*	*	*	*	*
1GG	.	1B	.	.	1d	.	1gny	.
*Xlig	*	*	*	*	*Xlig	*	*	*
=56-	=56-	=56-	=56-	=56-	=56-	=56-	=56-	=56-
!LO:TX:t=P:problem=kreska pseudotaktowa	!	!	!	!	!	!	!LO:TX:t=P:problem=kreska pseudotaktowa	!
1C	-mis	1G	-li-	.	2c/	-li-	1g	-mis
*	*	*	*	*	*custos:c	*	*	*
!	!	!	!	!	!LO:TX:t=P:problem=kreska pseudotaktowa	!	!	!
.	.	.	.	.	2G/	-ans	.	.
!	!	!	!	!	!LO:LB:g=original	!	!	!
*	*	*lig	*	*	*	*	*	*
*	*	*	*	*	*xywh-pl-kk--i-7--0104:7308,2555,5956,721	*	*	*
2r	.	1A	-ans	.	1.c	re-	2r	.
2AA/	in	.	.	.	.	.	2c/	in
=57-	=57-	=57-	=57-	=57-	=57-	=57-	=57-	=57-
2C/	ſe	1G	.	.	.	.	2e/	ſe
!LO:TX:t=P:problem=kreska pseudotaktowa	!	!	!	!	!	!	!LO:TX:t=P:problem=kreska pseudotaktowa	!
2BB/	re-	.	.	.	1d	.	2d/	re-
*	*	*Xlig	*	*	*	*	*	*
*	*	*lig	*	*	*	*	*	*
1D	-con-	1F	.	.	.	.	1fny	-con-
!	!	!	!	!	!LO:TX:t=P:problem=kreska pseudotaktowa	!	!	!
.	.	.	.	.	2A/	-con-	.	.
=58-	=58-	=58-	=58-	=58-	=58-	=58-	=58-	=58-
2.C/	-ci-	1E	.	.	2.c/	-ci-	2.g\	-ci-
!	!	!	!	!	!LO:TX:t=P:problem=kreska pseudotaktowa	!	!	!
4C/	-li-	.	.	.	4c/	-li-	4g\	-li-
*	*	*Xlig	*	*	*	*	*	*
*	*	*lig	*	*	*	*	*	*
*	*	*	*	*	*	*	*custos:g	*
!LO:TX:t=P:problem=kreska pseudotaktowa	!	!	!	!	!	!	!LO:TX:t=P:problem=kreska pseudotaktowa	!
1FF	-ans	1F	.	.	1c	-ans	1a	-ans
!	!	!	!	!	!	!	!LO:LB:g=original	!
=59-	=59-	=59-	=59-	=59-	=59-	=59-	=59-	=59-
*	*	*	*	*	*	*	*xywh-pl-kk--i-7--0018:1315,2727,5151,622	*
0r	.	1G,	.	.	4B/	i-	2.g\	i-
.	.	.	.	.	4F/	-ma	.	.
.	.	.	.	.	1g	ſum-	.	.
.	.	.	.	.	.	.	4b\	-ma
*	*	*Xlig	*	*	*	*	*	*
.	.	1D	i-	Al-	.	.	1a	Sum-
!	!	!	!	!	!LO:TX:t=P:problem=kreska pseudotaktowa	!	!	!
!	!	!	!	!	!LO:TX:a:t=P:problem=# above	!	!	!
.	.	.	.	.	2f#X\	.	.	.
=60-	=60-	=60-	=60-	=60-	=60-	=60-	=60-	=60-
!LO:TX:t=P:problem=kreska pseudotaktowa	!	!	!	!	!	!	!LO:TX:t=P:problem=kreska pseudotaktowa	!
1r	.	1G	-ma	-le-	2g\	-mis	1g	-mis
.	.	.	.	.	1d	i-	.	.
*	*	*lig	*	*	*	*	*	*ij
2rC	.	1G	Sum-	-lu-	.	.	2r	.
1C/	i-	.	.	.	4e\	-ma	1e\	i-
!	!	!	!	!	!LO:TX:t=P:problem=kreska pseudotaktowa	!	!	!
.	.	.	.	.	4d\	.	.	.
=61-	=61-	=61-	=61-	=61-	=61-	=61-	=61-	=61-
.	.	1A	.	.	4c/	.	.	.
.	.	.	.	.	4B/	.	.	.
!LO:TX:t=P:problem=kreska pseudotaktowa	!	!	!	!	!LO:TX:t=P:problem=kreska pseudotaktowa	!	!LO:TX:t=P:problem=kreska pseudotaktowa	!
2D/	-ma	.	.	.	2A/	.	2f\	-ma
*	*	*Xlig	*	*	*	*	*	*
1E	Sum-	1G	.	.	2e,\	.	4g\	Sum-
.	.	.	.	.	.	.	4f\	.
*	*	*	*	*	*lig	*	*	*
.	.	.	.	.	1B/	Sum-	4e/	.
.	.	.	.	.	.	.	4d/	.
=62-	=62-	=62-	=62-	=62-	=62-	=62-	=62-	=62-
*	*	*lig	*	*	*	*	*	*
4AA/	.	1c	.	.	.	.	0e	.
4BB/	.	.	.	.	.	.	.	.
4C/	.	.	.	.	1A	.	.	.
*custos:E	*	*	*	*	*	*	*	*
!LO:TX:t=P:problem=kreska pseudotaktowa	!	!	!	!	!	!	!	!
4D/	.	.	.	.	.	.	.	.
!LO:LB:g=original	!	!	!	!	!	!	!	!
*xywh-pl-kk--i-7--0270:1210,3623,2923,741	*	*	*	*	*	*	*	*
1E	.	1B	.	.	.	.	.	.
*	*	*Xlig	*	*	*Xlig	*	*	*
!	!	!	!	!	!LO:TX:t=P:problem=kreska pseudotaktowa	!	!	!
!	!	!	!	!	!LO:TX:a:t=P:problem=# above	!	!	!
.	.	.	.	.	2G#X/	.	.	.
=63-	=63-	=63-	=63-	=63-	=63-	=63-	=63-	=63-
!LO:TX:t=P:problem=kreska pseudotaktowa	!	!	!	!	!	!	!LO:TX:t=P:problem=kreska pseudotaktowa	!
1AA	-mis	1A	.	.	1A	-mis	1e	-mis
*	*	*lig	*	*	*	*ij	*	*
1rD	.	1B	.	.	1.d	Sum-	1r	.
=64-	=64-	=64-	=64-	=64-	=64-	=64-	=64-	=64-
2rC	.	1G	.	.	.	.	2r	.
*	*ij	*	*	*	*	*	*	*
1C	i-	.	.	.	4e\	.	1e	i-
!	!	!	!	!	!LO:TX:t=P:problem=kreska pseudotaktowa	!	!	!
.	.	.	.	.	4d\	.	.	.
*	*	*Xlig	*	*	*	*	*	*
*	*	*lig	*	*	*	*	*	*
.	.	1A	.	.	4c/	.	.	.
.	.	.	.	.	4B/	.	.	.
!LO:TX:t=P:problem=kreska pseudotaktowa	!	!	!	!	!LO:TX:t=P:problem=kreska pseudotaktowa	!	!LO:TX:t=P:problem=kreska pseudotaktowa	!
2D/	-ma	.	.	.	2A/	.	2f\	-ma
=65-	=65-	=65-	=65-	=65-	=65-	=65-	=65-	=65-
2E\	Sum-	1G	.	.	2Gny/	-mis	2g\	Sum-
2C/	.	.	.	.	1c	Sum-	2e/	.
*	*	*Xlig	*	*	*	*	*	*
*	*	*lig	*	*	*	*	*	*
!LO:TX:t=P:problem=kreska pseudotaktowa	!	!	!	!	!	!	!	!
1D	.	1F	.	.	.	.	2.f\	.
!	!	!	!	!	!LO:TX:t=P:problem=kreska pseudotaktowa	!	!	!
.	.	.	.	.	2B/	.	.	.
!	!	!	!	!	!	!	!LO:TX:t=P:problem=kreska pseudotaktowa	!
.	.	.	.	.	.	.	4g\	.
=66-	=66-	=66-	=66-	=66-	=66-	=66-	=66-	=66-
1AA	.	1E	.	.	2c/	.	1a	-mis
.	.	.	.	.	2e\	.	.	.
*	*	*Xlig	*	*	*	*	*	*Xij
1D	.	1F	-mis.	-ia.	2.d\	.	4a\	i-
.	.	.	.	.	.	.	4g\	.
.	.	.	.	.	.	.	4f\	.
!	!	!	!	!	!	!	!LO:TX:t=P:problem=kreska pseudotaktowa	!
.	.	.	.	.	4c/	.	4e/	.
=67-	=67-	=67-	=67-	=67-	=67-	=67-	=67-	=67-
!LO:N:vis=1	!	!	!	!	!	!	!	!
[0GGl;	-mis	[0Gl;	.	.	4B/	.	2.d/	-ma
.	.	.	.	.	4A/	.	.	.
.	.	.	.	.	[1.Bl;/	-mis	.	.
*	*Xij	*	*	*	*	*Xij	*	*
.	.	.	.	.	.	.	4g\	.
.	.	.	.	.	.	.	1a	Sum-
=68-	=68-	=68-	=68-	=68-	=68-	=68-	=68-	=68-
0GG]	.	0G]	.	.	0B]	.	1g	.
.	.	.	.	.	.	.	1g;<	-mis.
==	==	==	==	==	==	==	==	==
*-	*-	*-	*-	*-	*-	*-	*-	*-
!!!system-decoration: [s1,s2,s3,s4]
!!!RDF**kern: < = below
!!!RDF**kern: l = terminal long
!!!ENC: Marta Lawrence
!!!END: 2021-03-10
!!!ENC: Berenika Jozajtis
!!!END: 2021-02-24
!!!YEC: Copyright 2022 Narodowy Instytut Fryderyka Chopina (https://polishscores.org)
!!!YEM: Licence CC BY 4.0 (https://creativecommons.org/licenses/by/4.0)
!!!IIIF: https://repozytorium.nifc.pl/islandora/object/pl-kk%3A1956/datastream/IIIF/view
!!!ENC-iiif: Konrad Tyszka
!!!END-iiif: 2022-08-30
